X:7543
T:In Memory of Coleman
C: Ed Reavy
B: Where The Shannon Rises, By Ed Reavy
H: This is one of the weirdest tunes I know...
M:C|
R:Reel
K:Gm
E:9
F|DFBd cBGF | DF {G} (3FEF GFDF | GABc d^fga |\
 (3bag (3ag^f dgga |(3bag (3ag^f g_fdc |*
E:10
(3=Bcd BG FDCD | FGBd c2Bc | c=BcA _BGG ::\
 A | B2 fB gagf | =ec {d}(3c=Bc AFFA |*
E:9
B2 a/2g/2f/2e/2 fdcA | FGAc BGGA | B2 fB DBfB |\
 DBfB af {G}(3F=EF | GABc dbag | fd (3cBA BG G :|**
